actions/32/media-record.svg

<?xml version="1.0" encoding="UTF-8" standalone="no"?>
<svg
   version="1.1"
   width="32"
   height="32"
   id="svg4064"
   sodipodi:docname="media-record.svg"
   inkscape:version="1.2.2 (b0a8486541, 2022-12-01)"
   xmlns:inkscape="http://www.inkscape.org/namespaces/inkscape"
   xmlns:sodipodi="http://sodipodi.sourceforge.net/DTD/sodipodi-0.dtd"
   xmlns:xlink="http://www.w3.org/1999/xlink"
   xmlns="http://www.w3.org/2000/svg"
   xmlns:svg="http://www.w3.org/2000/svg"
   xmlns:rdf="http://www.w3.org/1999/02/22-rdf-syntax-ns#"
   xmlns:cc="http://creativecommons.org/ns#"
   xmlns:dc="http://purl.org/dc/elements/1.1/">
  <sodipodi:namedview
     id="namedview12405"
     pagecolor="#ffffff"
     bordercolor="#666666"
     borderopacity="1.0"
     inkscape:showpageshadow="2"
     inkscape:pageopacity="0.0"
     inkscape:pagecheckerboard="0"
     inkscape:deskcolor="#d1d1d1"
     showgrid="false"
     inkscape:zoom="10.429825"
     inkscape:cx="21.333052"
     inkscape:cy="28.571908"
     inkscape:window-width="1326"
     inkscape:window-height="794"
     inkscape:window-x="693"
     inkscape:window-y="210"
     inkscape:window-maximized="0"
     inkscape:current-layer="svg4064" />
  <defs
     id="defs4066">
    <linearGradient
       id="linearGradient3990">
      <stop
         id="stop3992"
         style="stop-color:#ffffff;stop-opacity:1"
         offset="0" />
      <stop
         id="stop3994"
         style="stop-color:#ffffff;stop-opacity:0"
         offset="1" />
    </linearGradient>
    <linearGradient
       x1="68.313301"
       y1="52.925316"
       x2="68.313301"
       y2="65.922028"
       id="linearGradient3175"
       xlink:href="#linearGradient3990"
       gradientUnits="userSpaceOnUse"
       gradientTransform="matrix(0.21882967,0,0,0.21882967,1.3571447,0.41837063)" />
    <linearGradient
       x1="71.204002"
       y1="6.2375998"
       x2="71.204002"
       y2="44.341"
       id="linearGradient3101"
       gradientUnits="userSpaceOnUse"
       gradientTransform="matrix(0.67567566,0,0,0.67567566,-32.468594,-1.133466)">
      <stop
         id="stop4013-29"
         style="stop-color:#ffffff;stop-opacity:1"
         offset="0" />
      <stop
         id="stop4015-1"
         style="stop-color:#ffffff;stop-opacity:0.23529412"
         offset="0.50775999" />
      <stop
         id="stop4017-2"
         style="stop-color:#ffffff;stop-opacity:0.15686275"
         offset="0.83456999" />
      <stop
         id="stop4019-7"
         style="stop-color:#ffffff;stop-opacity:0.39215687"
         offset="1" />
    </linearGradient>
    <linearGradient
       y2="23"
       x2="38.961662"
       y1="23"
       x1="7.0767264"
       gradientTransform="matrix(0,0.96429817,-0.96429817,0,38.178859,-6.1780897)"
       gradientUnits="userSpaceOnUse"
       id="linearGradient3932-9"
       xlink:href="#linearGradient3907" />
    <linearGradient
       id="linearGradient3907">
      <stop
         id="stop3909"
         offset="0"
         style="stop-color:#fafafa;stop-opacity:1" />
      <stop
         id="stop3911"
         offset="1"
         style="stop-color:#abacae;stop-opacity:1" />
    </linearGradient>
    <linearGradient
       xlink:href="#linearGradient4011"
       id="linearGradient3993-0-6-0-8-5"
       gradientUnits="userSpaceOnUse"
       gradientTransform="matrix(0.35135143,0,0,-0.35135144,-9.2036733,24.909303)"
       x1="71.204407"
       y1="6.2375584"
       x2="71.204407"
       y2="44.340794" />
    <linearGradient
       id="linearGradient4011">
      <stop
         offset="0"
         style="stop-color:#ffffff;stop-opacity:1"
         id="stop4013-35" />
      <stop
         offset="0.507761"
         style="stop-color:#ffffff;stop-opacity:0.23529412"
         id="stop4015-62" />
      <stop
         offset="0.83456558"
         style="stop-color:#ffffff;stop-opacity:0.15686275"
         id="stop4017-91" />
      <stop
         offset="1"
         style="stop-color:#ffffff;stop-opacity:0.39215687"
         id="stop4019-27" />
    </linearGradient>
    <linearGradient
       gradientUnits="userSpaceOnUse"
       y2="31.576309"
       x2="24"
       y1="16.500965"
       x1="24"
       id="linearGradient1006"
       xlink:href="#linearGradient1004"
       gradientTransform="matrix(0.73326596,0,0,0.73326596,-1.5983825,-1.597771)" />
    <linearGradient
       id="linearGradient1004">
      <stop
         id="stop1000"
         offset="0"
         style="stop-color:#ed5353;stop-opacity:1" />
      <stop
         id="stop1002"
         offset="1"
         style="stop-color:#c6262e;stop-opacity:1" />
    </linearGradient>
    <linearGradient
       gradientTransform="matrix(0.27026127,0,0,0.27026131,9.5134323,9.513681)"
       gradientUnits="userSpaceOnUse"
       xlink:href="#linearGradient3086"
       id="linearGradient3039-0"
       y2="45.368999"
       x2="7.0776"
       y1="3.0816"
       x1="7.0776" />
    <linearGradient
       gradientTransform="matrix(0.36857196,0,0,0.36857202,15.153867,16.154407)"
       gradientUnits="userSpaceOnUse"
       id="linearGradient3086"
       y2="45.368999"
       x2="7.0776"
       y1="3.0816"
       x1="7.0776">
      <stop
         offset="0"
         style="stop-color:#7a0000;stop-opacity:1"
         id="stop2492-0-3" />
      <stop
         offset="1"
         style="stop-color:#c6262e;stop-opacity:1"
         id="stop2494-6-6" />
    </linearGradient>
    <linearGradient
       x1="71.204002"
       y1="6.2375998"
       x2="71.204002"
       y2="44.341"
       id="linearGradient3032"
       xlink:href="#linearGradient3101-3"
       gradientUnits="userSpaceOnUse"
       gradientTransform="matrix(0.24324324,0,0,0.24324329,-1.4486949,9.831951)" />
    <linearGradient
       x1="71.204002"
       y1="6.2375998"
       x2="71.204002"
       y2="44.341"
       id="linearGradient3101-3"
       gradientUnits="userSpaceOnUse"
       gradientTransform="matrix(0.5135135,0,0,0.5135135,-24.836132,-1.021284)">
      <stop
         id="stop4013-6"
         style="stop-color:#ffffff;stop-opacity:1"
         offset="0" />
      <stop
         id="stop4015-1-9"
         style="stop-color:#ffffff;stop-opacity:0.23529412"
         offset="0.50775999" />
      <stop
         id="stop4017-2-3"
         style="stop-color:#ffffff;stop-opacity:0.15686275"
         offset="0.83456999" />
      <stop
         id="stop4019-9"
         style="stop-color:#ffffff;stop-opacity:0.39215687"
         offset="1" />
    </linearGradient>
    <radialGradient
       xlink:href="#linearGradient3820-7-2"
       id="radialGradient3300-8-3"
       gradientUnits="userSpaceOnUse"
       gradientTransform="matrix(0.3823536,7.5555777e-8,-1.8372241e-8,0.1115198,-5.9254271,36.335849)"
       cx="99.189415"
       cy="185.29727"
       fx="99.189415"
       fy="185.29727"
       r="62.769119" />
    <linearGradient
       id="linearGradient3820-7-2">
      <stop
         id="stop3822-2-6"
         style="stop-color:#000000;stop-opacity:1"
         offset="0" />
      <stop
         id="stop3824-1-2"
         style="stop-color:#000000;stop-opacity:0"
         offset="1" />
    </linearGradient>
    <radialGradient
       xlink:href="#linearGradient3820-7-2"
       id="radialGradient4192-6-5"
       gradientUnits="userSpaceOnUse"
       gradientTransform="matrix(0.2549024,5.3967361e-8,-1.2248161e-8,0.07965545,6.7163816,44.240666)"
       cx="99.189415"
       cy="185.29727"
       fx="99.189415"
       fy="185.29727"
       r="62.769119" />
  </defs>
  <metadata
     id="metadata4069">
    <rdf:RDF>
      <cc:Work
         rdf:about="">
        <dc:format>image/svg+xml</dc:format>
        <dc:type
           rdf:resource="http://purl.org/dc/dcmitype/StillImage" />
      </cc:Work>
    </rdf:RDF>
  </metadata>
  <g
     id="g4198-4-0"
     transform="matrix(0.5,0,0,0.49999791,7.75e-7,-7.8216253e-4)"
     style="stroke-width:2">
    <path
       d="m 55.999998,57.0017 a 24,6.9985714 0 1 1 -47.9999991,0 24,6.9985714 0 1 1 47.9999991,0 z"
       id="path3818-0-6-9"
       style="opacity:0.2;fill:url(#radialGradient3300-8-3);fill-opacity:1;stroke:none;stroke-width:2" />
    <path
       style="opacity:0.4;fill:url(#radialGradient4192-6-5);fill-opacity:1;stroke:none;stroke-width:2"
       id="path4190-2-3"
       d="m 47.999998,59.0017 a 16,4.9988822 0 1 1 -31.999999,0 16,4.9988822 0 1 1 31.999999,0 z" />
  </g>
  <path
     d="m 16.000477,2.5005958 c -7.4561765,0 -13.5006527,6.0446801 -13.5006527,13.5000062 0,7.456008 6.0445401,13.500345 13.5006527,13.500345 7.455838,0 13.499698,-6.044337 13.499698,-13.500345 0,-7.4553261 -6.04386,-13.5000062 -13.499698,-13.5000062 z"
     id="path3902-8"
     style="fill:url(#linearGradient3932-9);fill-opacity:1;fill-rule:nonzero;stroke:none;stroke-width:1" />
  <path
     d="M 16,2.5023957 C 8.5521459,2.5023957 2.5023958,8.5527887 2.5023958,16 2.5023958,23.447854 8.5527887,29.497604 16,29.497604 23.447853,29.497604 29.497604,23.447211 29.497604,16 29.497604,8.5521458 23.447211,2.5023957 16,2.5023957 Z"
     id="path2555-36"
     style="opacity:0.6;fill:none;fill-opacity:1;stroke:#555761;stroke-width:1.00365;stroke-linecap:round;stroke-linejoin:round;stroke-miterlimit:4;stroke-dasharray:none;stroke-dashoffset:0;stroke-opacity:1" />
  <path
     d="m 28.5,15.999802 c 0,6.903948 -5.597369,12.500001 -12.5,12.500001 -6.9034209,0 -12.4999999,-5.597369 -12.4999999,-12.500001 0,-6.9034207 5.596579,-12.4996048 12.5001309,-12.4996048 6.903027,0 12.499869,5.5960526 12.499869,12.4996048 z"
     id="path8655-6"
     style="color:#000000;fill:none;stroke:url(#linearGradient3101);stroke-width:1;stroke-linecap:round;stroke-linejoin:round;stroke-miterlimit:4;stroke-dasharray:none;stroke-dashoffset:0;enable-background:accumulate" />
  <path
     d="m 22.500002,16.00023 c 0,-3.589966 -2.910364,-6.500232 -6.49992,-6.500232 -3.589883,0 -6.5000837,2.910298 -6.5000837,6.500232 0,3.589802 2.9102007,6.499772 6.5000837,6.499772 3.589556,0 6.49992,-2.90997 6.49992,-6.499772 z"
     id="path8655-1-6-9-4-8-2"
     style="color:#000000;display:inline;overflow:visible;visibility:visible;opacity:0.5;fill:none;stroke:url(#linearGradient3993-0-6-0-8-5);stroke-width:0.999997;stroke-linecap:round;stroke-linejoin:round;stroke-miterlimit:4;stroke-dasharray:none;stroke-dashoffset:0;stroke-opacity:1;marker:none;enable-background:accumulate" />
  <path
     style="fill:url(#linearGradient1006);fill-opacity:1;stroke:url(#linearGradient3039-0);stroke-width:1.00365;stroke-linecap:round;stroke-linejoin:round;stroke-miterlimit:4;stroke-dasharray:none;stroke-dashoffset:0"
     id="path2555-3"
     d="m 16.000001,10.501826 c -3.033668,0 -5.498175,2.464507 -5.498175,5.498174 0,3.033668 2.464507,5.498174 5.498175,5.498174 3.033667,0 5.498173,-2.464506 5.498173,-5.498174 0,-3.033668 -2.464506,-5.498175 -5.498173,-5.498174 z" />
  <path
     d="m 20.5,15.999929 c 0,2.485422 -2.015054,4.500001 -4.5,4.500001 -2.485232,0 -4.5,-2.015053 -4.5,-4.500001 0,-2.485232 2.014768,-4.499859 4.500047,-4.499859 2.48509,0 4.499953,2.014579 4.499953,4.499859 z"
     id="path8655-6-3"
     style="color:#000000;opacity:0.5;fill:none;stroke:url(#linearGradient3032);stroke-width:1;stroke-linecap:round;stroke-linejoin:round;stroke-miterlimit:4;stroke-dasharray:none;stroke-dashoffset:0;enable-background:accumulate" />
  <path
     d="m 18.5,14.5 a 2.5,2.5 0 1 1 -5,0 2.5,2.5 0 1 1 5,0 z"
     id="path3220"
     style="color:#000000;display:inline;overflow:visible;visibility:visible;opacity:0.4;fill:url(#linearGradient3175);fill-opacity:1;stroke:none;stroke-width:0.175064;marker:none;enable-background:accumulate" />
</svg>

<?xml version="1.0" encoding="UTF-8" standalone="no"?>
<svg
   xmlns:dc="http://purl.org/dc/elements/1.1/"
   xmlns:cc="http://creativecommons.org/ns#"
   xmlns:rdf="http://www.w3.org/1999/02/22-rdf-syntax-ns#"
   xmlns:svg="http://www.w3.org/2000/svg"
   xmlns="http://www.w3.org/2000/svg"
   xmlns:xlink="http://www.w3.org/1999/xlink"
   version="1.1"
   width="32"
   height="32"
   id="svg4064">
  <defs
     id="defs4066">
    <linearGradient
       x1="71.204002"
       y1="6.2375998"
       x2="71.204002"
       y2="44.341"
       id="linearGradient3205"
       gradientUnits="userSpaceOnUse"
       gradientTransform="matrix(0.35135134,0,0,-0.35135134,-9.203668,24.909301)">
      <stop
         id="stop4013-2"
         style="stop-color:#ffffff;stop-opacity:1"
         offset="0" />
      <stop
         id="stop4015-4"
         style="stop-color:#ffffff;stop-opacity:0.23529412"
         offset="0.50775999" />
      <stop
         id="stop4017-9"
         style="stop-color:#ffffff;stop-opacity:0.15686275"
         offset="0.83456999" />
      <stop
         id="stop4019-0"
         style="stop-color:#ffffff;stop-opacity:0.39215687"
         offset="1" />
    </linearGradient>
    <radialGradient
       cx="23.896"
       cy="3.99"
       r="20.396999"
       id="radialGradient3037"
       gradientUnits="userSpaceOnUse"
       gradientTransform="matrix(0,0.64502634,-0.85142336,0,19.397182,-5.3264752)">
      <stop
         id="stop3244-4"
         style="stop-color:#f8b17e;stop-opacity:1"
         offset="0" />
      <stop
         id="stop3246-5"
         style="stop-color:#e35d4f;stop-opacity:1"
         offset="0.26238" />
      <stop
         id="stop3248-0"
         style="stop-color:#c6262e;stop-opacity:1"
         offset="0.66093999" />
      <stop
         id="stop3250-3"
         style="stop-color:#690b54;stop-opacity:1"
         offset="1" />
    </radialGradient>
    <linearGradient
       x1="7.0776"
       y1="3.0816"
       x2="7.0776"
       y2="45.368999"
       id="linearGradient3039"
       gradientUnits="userSpaceOnUse"
       gradientTransform="matrix(0.27026349,0,0,0.27026353,9.5136756,9.5136758)">
      <stop
         id="stop2492-0"
         style="stop-color:#791235;stop-opacity:1"
         offset="0" />
      <stop
         id="stop2494-6"
         style="stop-color:#c7321f;stop-opacity:1"
         offset="1" />
    </linearGradient>
    <linearGradient
       x1="71.204002"
       y1="6.2375998"
       x2="71.204002"
       y2="44.341"
       id="linearGradient3524"
       gradientUnits="userSpaceOnUse"
       gradientTransform="matrix(0.67567564,0,0,0.67567563,-32.468591,-1.1332679)">
      <stop
         id="stop4013"
         style="stop-color:#ffffff;stop-opacity:1"
         offset="0" />
      <stop
         id="stop4015"
         style="stop-color:#ffffff;stop-opacity:0.23529412"
         offset="0.50775999" />
      <stop
         id="stop4017"
         style="stop-color:#ffffff;stop-opacity:0.15686275"
         offset="0.83456999" />
      <stop
         id="stop4019"
         style="stop-color:#ffffff;stop-opacity:0.39215687"
         offset="1" />
    </linearGradient>
    <radialGradient
       cx="23.896"
       cy="3.99"
       r="20.396999"
       id="radialGradient3013"
       gradientUnits="userSpaceOnUse"
       gradientTransform="matrix(0,1.5835582,-2.0902688,0,24.340178,-36.357109)">
      <stop
         id="stop3244"
         style="stop-color:#ffffff;stop-opacity:1"
         offset="0" />
      <stop
         id="stop3246"
         style="stop-color:#dddddd;stop-opacity:1"
         offset="0.26238" />
      <stop
         id="stop3248"
         style="stop-color:#abacae;stop-opacity:1"
         offset="0.66093999" />
      <stop
         id="stop3250"
         style="stop-color:#89898b;stop-opacity:1"
         offset="1" />
    </radialGradient>
    <linearGradient
       x1="18.379"
       y1="44.98"
       x2="18.379"
       y2="3.0816"
       id="linearGradient3015"
       gradientUnits="userSpaceOnUse"
       gradientTransform="matrix(0.66350462,0,0,0.66350472,0.07588745,0.0758879)">
      <stop
         id="stop2492"
         style="stop-color:#505050;stop-opacity:1"
         offset="0" />
      <stop
         id="stop2494"
         style="stop-color:#aaaaaa;stop-opacity:1"
         offset="1" />
    </linearGradient>
    <radialGradient
       cx="62.625"
       cy="4.625"
       r="10.625"
       id="radialGradient4053"
       gradientUnits="userSpaceOnUse"
       gradientTransform="matrix(1.5058824,0,0,0.37647,-78.305888,26.258824)">
      <stop
         id="stop8840"
         style="stop-color:#000000;stop-opacity:1"
         offset="0" />
      <stop
         id="stop8842"
         style="stop-color:#000000;stop-opacity:0"
         offset="1" />
    </radialGradient>
    <linearGradient
       x1="71.204002"
       y1="6.2375998"
       x2="71.204002"
       y2="44.341"
       id="linearGradient3018"
       xlink:href="#linearGradient3205"
       gradientUnits="userSpaceOnUse"
       gradientTransform="matrix(0.35135134,0,0,-0.35135134,-9.203668,24.909301)" />
    <radialGradient
       cx="23.896"
       cy="3.99"
       r="20.396999"
       id="radialGradient3021"
       xlink:href="#radialGradient3037"
       gradientUnits="userSpaceOnUse"
       gradientTransform="matrix(0,0.64502634,-0.85142336,0,19.397182,-5.3264752)" />
    <linearGradient
       x1="7.0776"
       y1="3.0816"
       x2="7.0776"
       y2="45.368999"
       id="linearGradient3023"
       xlink:href="#linearGradient3039"
       gradientUnits="userSpaceOnUse"
       gradientTransform="matrix(0.27026349,0,0,0.27026353,9.5136756,9.5136758)" />
    <linearGradient
       x1="71.204002"
       y1="6.2375998"
       x2="71.204002"
       y2="44.341"
       id="linearGradient3026"
       xlink:href="#linearGradient3524"
       gradientUnits="userSpaceOnUse"
       gradientTransform="matrix(0.67567564,0,0,0.67567563,-32.468591,-1.1332679)" />
    <radialGradient
       cx="23.896"
       cy="3.99"
       r="20.396999"
       id="radialGradient3029"
       xlink:href="#radialGradient3013"
       gradientUnits="userSpaceOnUse"
       gradientTransform="matrix(0,1.5835582,-2.0902688,0,24.340178,-36.357109)" />
    <linearGradient
       x1="18.379"
       y1="44.98"
       x2="18.379"
       y2="3.0816"
       id="linearGradient3031"
       xlink:href="#linearGradient3015"
       gradientUnits="userSpaceOnUse"
       gradientTransform="matrix(0.66350462,0,0,0.66350472,0.07588745,0.0758879)" />
    <radialGradient
       cx="62.625"
       cy="4.625"
       r="10.625"
       id="radialGradient3034"
       xlink:href="#radialGradient4053"
       gradientUnits="userSpaceOnUse"
       gradientTransform="matrix(1.5058824,0,0,0.37647,-78.305888,26.258824)" />
    <linearGradient
       x1="71.204002"
       y1="6.2375998"
       x2="71.204002"
       y2="44.341"
       id="linearGradient3524-6"
       gradientUnits="userSpaceOnUse"
       gradientTransform="matrix(0.67567564,0,0,0.67567563,-32.468591,-1.1332679)">
      <stop
         id="stop4013-1"
         style="stop-color:#ffffff;stop-opacity:1"
         offset="0" />
      <stop
         id="stop4015-2"
         style="stop-color:#ffffff;stop-opacity:0.23529412"
         offset="0.50775999" />
      <stop
         id="stop4017-93"
         style="stop-color:#ffffff;stop-opacity:0.15686275"
         offset="0.83456999" />
      <stop
         id="stop4019-1"
         style="stop-color:#ffffff;stop-opacity:0.39215687"
         offset="1" />
    </linearGradient>
    <linearGradient
       x1="71.204002"
       y1="6.2375998"
       x2="71.204002"
       y2="44.341"
       id="linearGradient3053"
       xlink:href="#linearGradient3524-6"
       gradientUnits="userSpaceOnUse"
       gradientTransform="matrix(0.24324324,0,0,0.24324324,-1.4486925,9.8320237)" />
    <linearGradient
       id="linearGradient3990">
      <stop
         id="stop3992"
         style="stop-color:#ffffff;stop-opacity:1"
         offset="0" />
      <stop
         id="stop3994"
         style="stop-color:#ffffff;stop-opacity:0"
         offset="1" />
    </linearGradient>
    <linearGradient
       x1="68.313301"
       y1="52.925316"
       x2="68.313301"
       y2="65.922028"
       id="linearGradient3175"
       xlink:href="#linearGradient3990"
       gradientUnits="userSpaceOnUse" />
  </defs>
  <metadata
     id="metadata4069">
    <rdf:RDF>
      <cc:Work
         rdf:about="">
        <dc:format>image/svg+xml</dc:format>
        <dc:type
           rdf:resource="http://purl.org/dc/dcmitype/StillImage" />
        <dc:title />
      </cc:Work>
    </rdf:RDF>
  </metadata>
  <path
     d="m 32,28 c 0,2.2091 -7.1634,4 -16,4 -8.8366,0 -16,-1.791 -16,-4 0,-2.2091 7.1634,-4 16,-4 8.8366,0 16,1.7909 16,4 z"
     id="path8836"
     style="opacity:0.3;fill:url(#radialGradient3034);fill-rule:evenodd" />
  <path
     d="m 16,2.5018 c -7.4478,0 -13.498,6.0503 -13.498,13.498 0,7.4478 6.0503,13.498 13.498,13.498 7.4478,0 13.498,-6.0503 13.498,-13.498 C 29.498,8.552 23.4477,2.5018 16,2.5018 z"
     id="path2555"
     style="fill:url(#radialGradient3029);stroke:url(#linearGradient3031);stroke-width:1.00365412;stroke-linecap:round;stroke-linejoin:round;stroke-miterlimit:4;stroke-dasharray:none;stroke-dashoffset:0" />
  <path
     d="M 28.5,16 C 28.5,22.903 22.903,28.5 16,28.5 9.0965,28.5 3.5,22.903 3.5,16 3.5,9.0961 9.0965,3.5 16,3.5 22.903,3.5 28.5,9.0961 28.5,16 z"
     id="path8655-6"
     style="opacity:0.8;color:#000000;fill:none;stroke:url(#linearGradient3026);stroke-width:0.99999988;stroke-linecap:round;stroke-linejoin:round;stroke-miterlimit:4;stroke-dasharray:none;stroke-dashoffset:0;enable-background:accumulate" />
  <path
     d="m 16,10.502 c -3.0337,0 -5.4982,2.4645 -5.4982,5.4982 0,3.0337 2.4645,5.4982 5.4982,5.4982 3.0337,0 5.4982,-2.4645 5.4982,-5.4982 0,-3.0337 -2.4645,-5.4982 -5.4982,-5.4982 z"
     id="path2555-3"
     style="fill:url(#radialGradient3021);stroke:url(#linearGradient3023);stroke-width:1.00365412;stroke-linecap:round;stroke-linejoin:round;stroke-miterlimit:4;stroke-dasharray:none;stroke-dashoffset:0" />
  <path
     d="M 22.5,16 C 22.5,12.41 19.5896,9.4998 16.0001,9.4998 12.4102,9.4998 9.5,12.4101 9.5,16 c 0,3.5898 2.9102,6.4998 6.5001,6.4998 3.5896,0 6.4999,-2.91 6.4999,-6.4998 z"
     id="path8655-6-1"
     style="opacity:0.5;color:#000000;fill:none;stroke:url(#linearGradient3018);stroke-width:1;stroke-linecap:round;stroke-linejoin:round;stroke-miterlimit:4;stroke-dasharray:none;stroke-dashoffset:0;enable-background:accumulate" />
  <path
     d="m 20.500001,16 c 0,2.485081 -2.01492,4.500001 -4.5,4.500001 C 13.514741,20.500001 11.5,18.485081 11.5,16 c 0,-2.485403 2.014741,-4.5 4.500001,-4.5 2.48508,0 4.5,2.014597 4.5,4.5 z"
     id="path8655-6-9"
     style="opacity:0.5;color:#000000;fill:none;stroke:url(#linearGradient3053);stroke-width:0.99999988;stroke-linecap:round;stroke-linejoin:round;stroke-miterlimit:4;stroke-dasharray:none;stroke-dashoffset:0;enable-background:accumulate" />
  <path
     d="m 78.338799,64.349724 a 11.424408,11.424408 0 1 1 -22.848816,0 11.424408,11.424408 0 1 1 22.848816,0 z"
     transform="matrix(0.26259566,0,0,0.26259566,-1.5714286,-1.8979581)"
     id="path3220"
     style="opacity:0.4;color:#000000;fill:url(#linearGradient3175);fill-opacity:1;stroke:none;stroke-width:1;marker:none;visibility:visible;display:inline;overflow:visible;enable-background:accumulate" />
</svg>
